src/actions/22/format-border-set-diagonal-tl-br.svg

<svg xmlns="http://www.w3.org/2000/svg" viewBox="0 0 22 22">
  <defs id="defs3051">
    <style type="text/css" id="current-color-scheme">
      .ColorScheme-Text {
        color:#363636;
      }
      </style>
  </defs>
 <path 
     style="fill:currentColor;fill-opacity:0.1;stroke:none" 
     d="M 3.7070312 2 L 4.7070312 3 L 11 3 L 11 9.2929688 L 12.707031 11 L 19 11 L 19 17.292969 L 20 18.292969 L 20 18 L 20 11 L 20 10 L 20 3 L 20 2 L 19 2 L 12 2 L 11 2 L 4 2 L 3.7070312 2 z M 3 2.7070312 L 3 3 L 3 10 L 3 11 L 3 18 L 3 19 L 4 19 L 11 19 L 12 19 L 19 19 L 19.292969 19 L 18.292969 18 L 12 18 L 12 11.707031 L 10.292969 10 L 4 10 L 4 3.7070312 L 3 2.7070312 z M 12 3 L 19 3 L 19 10 L 12 10 L 12 3 z M 4 11 L 11 11 L 11 18 L 4 18 L 4 11 z "
     class="ColorScheme-Text"
     />
 <path 
     style="fill:currentColor;fill-opacity:0.5;stroke:none" 
     d="M 4.7070312 3 L 11 9.2929688 L 11 3 L 4.7070312 3 z M 12 3 L 12 10 L 19 10 L 19 3 L 12 3 z M 4 3.7070312 L 4 10 L 10.292969 10 L 4 3.7070312 z M 4 11 L 4 18 L 11 18 L 11 11 L 4 11 z M 12.707031 11 L 19 17.292969 L 19 11 L 12.707031 11 z M 12 11.707031 L 12 18 L 18.292969 18 L 12 11.707031 z "
     class="ColorScheme-Text"
     />
 <path 
     style="fill:currentColor;fill-opacity:1.0;stroke:none" 
     d="M 345.29297,553.3622 329,537.06923 l 0,-0.70703 0.70703,0 16.29297,16.29297 0,0.70703 -0.70703,0 z"
     class="ColorScheme-Text"
     transform="translate(-326,-534.3622)"
     />
</svg>

<svg xmlns="http://www.w3.org/2000/svg" viewBox="0 0 22 22">
    <defs id="defs3051">
        <style id="current-color-scheme" type="text/css">
            .ColorScheme-Text{color:#050505;opacity:.7}
        </style>
    </defs>
    <path d="m3.707 2 1 1H11v6.293L12.707 11H19v6.293l1 1V2H3.707zM3 2.707V19h16.293l-1-1H12v-6.293L10.293 10H4V3.707l-1-1zM12 3h7v7h-7V3zm-8 8h7v7H4v-7z" class="ColorScheme-Text" style="fill:currentColor;fill-opacity:.1;stroke:none"/>
    <path d="M4.707 3 11 9.293V3H4.707zM12 3v7h7V3h-7zm-8 .707V10h6.293L4 3.707zM4 11v7h7v-7H4zm8.707 0L19 17.293V11h-6.293zm-.707.707V18h6.293L12 11.707z" class="ColorScheme-Text" style="fill:currentColor;fill-opacity:.5;stroke:none"/>
    <path d="M345.293 553.362 329 537.07v-.707h.707L346 552.655v.707h-.707z" class="ColorScheme-Text" style="fill:currentColor;fill-opacity:1;stroke:none" transform="translate(-326 -534.362)"/>
</svg>
